source/assets/images/icons/whatsapp.svg

<svg fill="none" height="50" viewBox="0 0 50 50" width="50" xmlns="http://www.w3.org/2000/svg"><g fill="#000"><path d="m42.9848 7.01523c-4.5239-4.52392-10.5386-7.01523-16.9363-7.01523-6.3976 0-12.4125 2.49131-16.93639 7.01523-4.52393 4.52397-7.01514 10.53857-7.01514 16.93627 0 4.0526 1.02588 8.035 2.97315 11.5627l-5.07012 14.4858 14.4856-5.07c3.5278 1.9471 7.5102 2.973 11.5628 2.973 6.3977 0 12.4125-2.4914 16.9363-7.0152 4.5239-4.5238 7.0153-10.5386 7.0153-16.9363 0-6.3978-2.4914-12.4124-7.0152-16.93627zm-16.9363 37.95497c-3.7594 0-7.4494-1.0055-10.6706-2.9078l-.5868-.3466-10.01063 3.5036 3.50371-10.0105-.34658-.5868c-1.90225-3.2212-2.90772-6.9111-2.90772-10.6705 0-11.5898 9.42902-21.01869 21.01862-21.01869 11.5897 0 21.0187 9.42899 21.0187 21.01869s-9.429 21.0186-21.0187 21.0186z"/><path d="m38.926 29.7384-3.4563-3.4563c-1.1434-1.1436-3.0041-1.1436-4.1477 0l-1.3221 1.322c-3.2107-1.7416-5.8624-4.3933-7.6041-7.604l1.3221-1.3221c.554-.554.8589-1.2905.8589-2.0739s-.305-1.5199-.8589-2.0738l-3.4564-3.4563c-.5539-.554-1.2904-.859-2.0738-.859-.7835 0-1.5199.305-2.0738.859l-2.7651 2.765c-1.5605 1.5605-1.634 4.2542-.2067 7.5844 1.2469 2.9092 3.5298 6.1077 6.4282 9.0061 2.8984 2.8985 6.0969 5.1814 9.0062 6.4282 1.5873.6802 3.0294 1.0196 4.2737 1.0196 1.3664 0 2.4939-.4095 3.3106-1.2263l2.7651-2.765c.554-.5539.8589-1.2905.8589-2.0739s-.3049-1.5198-.8588-2.0737zm-4.8388 4.839c-.6173.6172-2.3269.4542-4.3554-.4153-2.5744-1.1033-5.4468-3.1654-8.0877-5.8063s-4.7029-5.5132-5.8063-8.0877c-.8695-2.0285-1.0323-3.7381-.4153-4.3554l2.7652-2.765 3.4563 3.4563-2.8046 2.8046.4424.9339c2.1506 4.54 5.8353 8.2247 10.3754 10.3754l.9339.4424 2.8046-2.8046 3.4563 3.4563z"/></g></svg>

<svg width="50" height="50" viewBox="0 0 50 50" fill="none" xmlns="http://www.w3.org/2000/svg">
<path d="M42.9848 7.01523C38.4609 2.49131 32.4462 0 26.0485 0C19.6509 0 13.636 2.49131 9.11211 7.01523C4.58818 11.5392 2.09697 17.5538 2.09697 23.9515C2.09697 28.0041 3.12285 31.9865 5.07012 35.5142L0 50L14.4856 44.93C18.0134 46.8771 21.9958 47.903 26.0484 47.903C32.4461 47.903 38.4609 45.4116 42.9847 40.8878C47.5086 36.364 50 30.3492 50 23.9515C50 17.5537 47.5086 11.5391 42.9848 7.01523ZM26.0485 44.9702C22.2891 44.9702 18.5991 43.9647 15.3779 42.0624L14.7911 41.7158L4.78047 45.2194L8.28418 35.2089L7.9376 34.6221C6.03535 31.4009 5.02988 27.711 5.02988 23.9516C5.02988 12.3618 14.4589 2.93291 26.0485 2.93291C37.6382 2.93291 47.0672 12.3619 47.0672 23.9516C47.0672 35.5413 37.6382 44.9702 26.0485 44.9702Z" fill="black"/>
<path d="M38.926 29.7384L35.4697 26.2821C34.3263 25.1385 32.4656 25.1385 31.322 26.2821L29.9999 27.6041C26.7892 25.8625 24.1375 23.2108 22.3958 20.0001L23.7179 18.678C24.2719 18.124 24.5768 17.3875 24.5768 16.6041C24.5768 15.8207 24.2718 15.0842 23.7179 14.5303L20.2615 11.074C19.7076 10.52 18.9711 10.215 18.1877 10.215C17.4042 10.215 16.6678 10.52 16.1139 11.074L13.3488 13.839C11.7883 15.3995 11.7148 18.0932 13.1421 21.4234C14.389 24.3326 16.6719 27.5311 19.5703 30.4295C22.4687 33.328 25.6672 35.6109 28.5765 36.8577C30.1638 37.5379 31.6059 37.8773 32.8502 37.8773C34.2166 37.8773 35.3441 37.4678 36.1608 36.651L38.9259 33.886C39.4799 33.3321 39.7848 32.5955 39.7848 31.8121C39.7848 31.0287 39.4799 30.2923 38.926 29.7384ZM34.0872 34.5774C33.4699 35.1946 31.7603 35.0316 29.7318 34.1621C27.1574 33.0588 24.285 30.9967 21.6441 28.3558C19.0032 25.7149 16.9412 22.8426 15.8378 20.2681C14.9683 18.2396 14.8055 16.53 15.4225 15.9127L18.1877 13.1477L21.644 16.604L18.8394 19.4086L19.2818 20.3425C21.4324 24.8825 25.1171 28.5672 29.6572 30.7179L30.5911 31.1603L33.3957 28.3557L36.852 31.812L34.0872 34.5774Z" fill="black"/>
</svg>
